X:1
T:Title
%%score 1 { 2 | 3 }
L:1/8
Q:1/4=89
M:4/4
K:Ab
V:1 treble nm="Grand Piano, Soprano"
V:2 bass nm="Choir Pad, Zion Is My Home"
V:3 bass 
V:1
 (3EFG A[EA] [EA][EA] [EA]2 | (3[Ec][EB][EA] [DF][DF] [DF][DF] [DF]2 | (3FGA [=DB][DB] DE[Ec][EB] | %3
w: By~T.~R.~Beard * * * * * * *|||
 GF[=DB][DA] [DG][DF] E2 | (3EFG A[EA] [EA][EA][EA][Ec] | [Ed][Ec][FB][DF] [DF][DF] [DF]2 | %6
w: |||
 (3FGA E[EA] EE[Ec][Ec] | CC [Ec]>[=D_c] [E=c][_DB] [CA]2 | z2 [Ec][Ec] z2 [Ec][Ec] | %9
w: |||
 z2 [FA]>[=EG] [FB][FB] [Ec]2 | z2 [=DF][DF] z2 [_DG][=DA] | z2 [=DG]>[DA] [DG][DF] E2 | %12
w: |||
 (3EFG A[EA] [EA][EA][EA][Ec] | [Ed][Ec][FB][DF] [DF][DF] [DF]2 | (3FGA E[EA] EE[Ec][Ec] | %15
w: |||
 CC [Ec]>[=D_c] [E=c][_DB] [CA]2- | [CA]6 z2 |] %17
w: ||
V:2
 (3E,F,G, A,C[K:treble] CC C2 | (3A,G,[K:bass]A, A,A, A,A, A,2 | (3F,G,A, F,F, F,G,A,G, | %3
 B,A,F,C B,A, G,2 | (3E,F,G, A,[K:treble]C CCCA, | G,A,A,A, A,A, A,2 | %6
 (3F,G,A, A,[K:treble]C CCA,A, | A,A, A,>A, G,G, A,2 | z2 A,A, C,E,A,A, | E,C, A,>A, A,F, G,2 | %10
 z2 A,A, G,F,=E,F, | C_C B,>=C B,A, G,2 | (3E,F,G, A,[K:treble]C CCCA, | G,A,A,A, A,A, A,2 | %14
 (3F,G,A, A,[K:treble]C CCA,A, | A,A, A,>A, G,G, A,2- | A,6 z2 |] %17
V:3
 z2 z A, A,A, A,2 | (3A,,B,,C, D,D, D,D, D,2 | z2 B,,B,, z2 B,,B,, | z2 B,,B,, B,,B,, E,2 | %4
 z2 z A, A,A,A,A,, | B,,C,D,D, D,D, D,2 | z2 E,E, z2 A,,A,, | z2 E,>E, E,E, A,,2 | z2 A,,A,, z4 | %9
 z2 D,>D, D,D, C,2 | z2 B,,B,, z2 B,,B,, | z2 B,,>B,, B,,B,, E,2 | z2 z A, A,A,A,A,, | %13
 B,,C,D,D, D,D, D,2 | z2 E,E, z2 A,,A,, | z2 E,>E, E,E, A,,2- | A,,6 z2 |] %17

